contributed-vectors/sagon.svg

<?xml version="1.0" encoding="UTF-8" standalone="no"?>
<svg
   xmlns:dc="http://purl.org/dc/elements/1.1/"
   xmlns:cc="http://creativecommons.org/ns#"
   xmlns:rdf="http://www.w3.org/1999/02/22-rdf-syntax-ns#"
   xmlns:svg="http://www.w3.org/2000/svg"
   xmlns="http://www.w3.org/2000/svg"
   xmlns:sodipodi="http://sodipodi.sourceforge.net/DTD/sodipodi-0.dtd"
   xmlns:inkscape="http://www.inkscape.org/namespaces/inkscape"
   viewBox="0 0 192 192"
   version="1.1"
   id="svg16"
   sodipodi:docname="sagon.svg"
   inkscape:version="0.92.4 (5da689c313, 2019-01-14)">
  <metadata
     id="metadata20">
    <rdf:RDF>
      <cc:Work
         rdf:about="">
        <dc:format>image/svg+xml</dc:format>
        <dc:type
           rdf:resource="http://purl.org/dc/dcmitype/StillImage" />
        <dc:title />
      </cc:Work>
    </rdf:RDF>
  </metadata>
  <sodipodi:namedview
     pagecolor="#ffffff"
     bordercolor="#666666"
     borderopacity="1"
     objecttolerance="10"
     gridtolerance="10"
     guidetolerance="10"
     inkscape:pageopacity="0"
     inkscape:pageshadow="2"
     inkscape:window-width="1920"
     inkscape:window-height="1017"
     id="namedview18"
     showgrid="true"
     inkscape:zoom="3.4766083"
     inkscape:cx="54.942038"
     inkscape:cy="73.971849"
     inkscape:window-x="-8"
     inkscape:window-y="-8"
     inkscape:window-maximized="1"
     inkscape:current-layer="svg16"
     inkscape:snap-global="true">
    <inkscape:grid
       type="xygrid"
       id="grid827"
       spacingx="4"
       spacingy="4" />
  </sodipodi:namedview>
  <defs
     id="defs4">
    <style
       id="style2">.a{fill:none;stroke:#b1b5bd;stroke-linecap:round;stroke-linejoin:round;isolation:isolate;opacity:0.63;}</style>
  </defs>
  <rect
     class="a"
     x="20"
     y="20"
     width="152"
     height="152"
     rx="10"
     id="rect6"
     style="fill:#ba6561;stroke:none;opacity:1" />
  <path
     style="fill:#d4b79a;stroke:none;stroke-width:1px;stroke-linecap:butt;stroke-linejoin:miter;stroke-opacity:1"
     d="M 100 80 C 80.325172 80 65.939875 90.122994 66.441406 109.83008 C 66.820658 124.73237 84 128.10722 84 148 C 84 162.68485 64 172 64 172 L 162 172 C 167.54 172 172 167.54 172 162 L 172 140 C 172 140 145.88609 80 100 80 z "
     id="path829" />
  <path
     style="fill:#56595b;"
     d="m 60,104 h 72 c 0,0 0,20 -16,20 -16,0 -20,-16 -20,-16 0,0 -4,16 -20,16 -16,0 -16,-20 -16,-20 z"
     id="path831"
     inkscape:connector-curvature="0"
     sodipodi:nodetypes="cczczc" />
  <path
     style="fill:#ffffff;stroke:none;stroke-width:1px;stroke-linecap:butt;stroke-linejoin:miter;stroke-opacity:1;opacity:0.25"
     d="M 92.042969 134.32812 C 87.994691 134.32812 84.380998 134.71992 81.142578 135.41211 C 82.84989 138.82992 84 142.86088 84 148 C 84 162.68485 64 172 64 172 L 132 172 C 132 172 132.0867 134.32812 92.042969 134.32812 z "
     id="path835" />
  <path
     style="fill:#d4b79a;stroke:none;stroke-width:1px;stroke-linecap:butt;stroke-linejoin:miter;stroke-opacity:1"
     d="M 80,68 V 92 L 92,84 Z"
     id="path837"
     inkscape:connector-curvature="0" />
  <path
     style="fill:#d4b79a;stroke:none;stroke-width:1px;stroke-linecap:butt;stroke-linejoin:miter;stroke-opacity:1"
     d="m 112,68 v 28 l 16,-8 z"
     id="path837-4"
     inkscape:connector-curvature="0"
     sodipodi:nodetypes="cccc" />
</svg>

<svg xmlns="http://www.w3.org/2000/svg" viewBox="0 0 192 192"><rect width="152" height="152" x="20" y="20" rx="10" style="fill:#ba6561;stroke:none;opacity:1;stroke-linecap:round;stroke-linejoin:round;isolation:isolate"/><path d="M100 80c-19.675 0-34.06 10.123-33.559 29.83C66.821 124.732 84 128.107 84 148c0 14.685-20 24-20 24h98c5.54 0 10-4.46 10-10v-22s-26.114-60-72-60z" style="fill:#d4b79a;stroke:none;stroke-width:1px;stroke-linecap:butt;stroke-linejoin:miter;stroke-opacity:1"/><path d="M60 104h72s0 20-16 20-20-16-20-16-4 16-20 16-16-20-16-20z" style="fill:#56595b"/><path d="M92.043 134.328c-4.048 0-7.662.392-10.9 1.084C82.85 138.83 84 142.861 84 148c0 14.685-20 24-20 24h68s.087-37.672-39.957-37.672z" style="fill:#fff;stroke:none;stroke-width:1px;stroke-linecap:butt;stroke-linejoin:miter;stroke-opacity:1;opacity:.25"/><path d="M80 68v24l12-8ZM112 68v28l16-8z" style="fill:#d4b79a;stroke:none;stroke-width:1px;stroke-linecap:butt;stroke-linejoin:miter;stroke-opacity:1"/></svg>
